portfolio/ecw/static/images/icons/icon-reward.svg

<?xml version="1.0" encoding="UTF-8"?>
<svg width="54px" height="63px" viewBox="0 0 54 63" version="1.1" xmlns="http://www.w3.org/2000/svg" xmlns:xlink="http://www.w3.org/1999/xlink">
    <!-- Generator: Sketch 54.1 (76490) - https://sketchapp.com -->
    <title>ico_qualitaet</title>
    <desc>Created with Sketch.</desc>
    <defs>
        <polygon id="path-1" points="0 0.181895461 53.8761218 0.181895461 53.8761218 62.9998062 0 62.9998062"></polygon>
    </defs>
    <g id="Symbols" stroke="none" stroke-width="1" fill="none" fill-rule="evenodd">
        <g id="ico_qualitaet">
            <g>
                <g id="Group-3">
                    <mask id="mask-2" fill="white">
                        <use xlink:href="#path-1"></use>
                    </mask>
                    <g id="Clip-2"></g>
                    <path d="M53.6957609,52.4547692 L44.4298696,36.3269631 C45.368413,35.89236 45.9324783,34.9004492 45.8696739,33.7835077 L45.1811739,28.0762892 L49.1255217,23.98284 C50.0012609,23.1144092 50.0640652,21.6256708 49.1873478,20.5709538 L45.2437826,16.3532492 L46.056913,10.584 C46.1823261,9.34377231 45.3056087,8.10257538 44.0538261,7.85425846 L38.3562391,6.73809231 L35.6018478,1.71321231 C35.0385652,0.535015385 33.660587,0.0391569231 32.4088043,0.535015385 L32.346,0.535015385 L27.0870652,2.95440923 L21.9527609,0.472984615 C21.3894783,0.162443077 20.7009783,0.100412308 20.0748913,0.286698462 C19.4482174,0.472984615 18.9477391,0.906812308 18.635087,1.46567077 L15.8173043,6.48977538 L10.1197174,7.48246154 C8.80513043,7.73077846 7.92841304,8.90916923 8.05382609,10.2736523 L8.74252174,15.9806769 L4.79797826,20.0749015 C3.92145652,20.9435262 3.85884783,22.4320708 4.73536957,23.4862062 L8.67971739,27.7044923 L7.86580435,33.4729662 C7.7403913,34.5899077 8.42986957,35.6446246 9.49363043,36.0786462 L0.165130435,52.4547692 C-0.0856956522,52.8265662 -0.0228913043,53.3233938 0.165130435,53.6951908 C0.41576087,54.0675692 0.791021739,54.31608 1.22967391,54.31608 L11.2468696,54.31608 L15.8173043,62.1932123 C16.0679348,62.5657846 16.4431957,62.8142954 16.8818478,62.8142954 C17.3197174,62.8142954 17.7585652,62.5657846 17.9458043,62.1932123 L26.8990435,47.0580923 L35.8524783,62.3794985 C36.1023261,62.7520708 36.4783696,62.9998062 36.9164348,62.9998062 C37.355087,62.9998062 37.7929565,62.7520708 37.9809783,62.3794985 L42.5512174,54.31608 L52.5686087,54.31608 C53.0072609,54.31608 53.4451304,54.0675692 53.6331522,53.6951908 C53.9458043,53.3233938 53.9458043,52.8265662 53.6957609,52.4547692 Z M16.9444565,59.0916738 L13.062913,52.4547692 C12.812087,52.0821969 12.4360435,51.8346554 11.9981739,51.8346554 L3.35817391,51.8346554 L11.9981739,36.69876 L15.5664783,37.3188738 L18.3218478,42.3437538 C18.8849348,43.5219508 20.2621304,44.0187785 21.5148913,43.5219508 L21.5775,43.5219508 L24.1438696,42.3437538 L25.3966304,44.5146369 L16.9444565,59.0916738 Z M20.5755652,41.2890369 L20.5129565,41.2890369 L17.7585652,36.1406769 C17.3825217,35.5205631 16.7566304,35.0237354 16.0053261,34.96248 L10.2449348,33.9075692 L11.0588478,28.2005446 C11.1842609,27.4561754 10.9336304,26.6497754 10.4329565,26.1537231 L6.55121739,21.9354369 L10.4957609,17.8419877 C11.0588478,17.2831292 11.3096739,16.53876 11.1842609,15.7943908 L10.4957609,10.1501723 C10.4957609,10.1501723 10.4957609,10.0881415 10.5583696,10.0259169 L16.2559565,9.03323077 C16.9444565,8.90916923 17.6331522,8.47514769 18.008413,7.79300308 L20.8261957,2.76812308 L25.959913,5.24954769 C26.648413,5.62134462 27.5251304,5.62134462 28.2136304,5.24954769 L33.4107391,2.89218462 L33.4733478,2.89218462 L36.2277391,8.04054462 C36.6037826,8.66065846 37.2296739,9.15748615 37.9183696,9.21951692 L43.6159565,10.3356831 L42.8020435,16.0427077 C42.6766304,16.7870769 42.9264783,17.5934769 43.4279348,18.0895292 L47.3722826,22.3080092 L43.3653261,26.4022338 C42.8020435,26.9603169 42.5512174,27.7044923 42.6766304,28.4488615 L43.3653261,34.15608 L37.7303478,35.08596 C37.0416522,35.2100215 36.3531522,35.6446246 35.9771087,36.3269631 L33.159913,41.3510677 L28.0263913,38.8696431 C27.3371087,38.4978462 26.4611739,38.4978462 25.7718913,38.8696431 L20.5755652,41.2890369 Z M41.8627174,51.8346554 C41.4240652,51.8346554 40.986,52.0821969 40.7979783,52.4547692 L36.9164348,59.27796 L28.0882174,44.14284 C28.0263913,43.9565538 27.9637826,43.8324923 27.8383696,43.7082369 L26.4611739,41.2890369 L26.8990435,41.1035262 L32.0327609,43.5839815 C32.4088043,43.7702677 32.7838696,43.8324923 33.159913,43.8324923 C34.0366304,43.8324923 34.9131522,43.3984708 35.3512174,42.5920708 L38.169,37.5671908 L41.9253261,36.8850462 L50.5027174,51.8346554 L41.8627174,51.8346554 Z" id="Fill-1" fill="#CD171A" mask="url(#mask-2)"></path>
                </g>
                <path d="M39,21.5 C39,14.6251953 33.375,9 26.5,9 C19.6251953,9 14,14.6251953 14,21.5 C14,28.375 19.6251953,34 26.5,34 C33.375,34 39,28.375 39,21.5 Z M26.5,31.5 C21,31.5 16.5001953,27.0001953 16.5001953,21.5 C16.5001953,16 21,11.5001953 26.5,11.5001953 C32.0001953,11.5001953 36.5,16 36.5,21.5 C36.5,27.0001953 32.0001953,31.5 26.5,31.5 Z" id="Fill-4" fill="#CD171A"></path>
            </g>
        </g>
    </g>
</svg>

<svg width="54" height="63" xmlns="http://www.w3.org/2000/svg" xmlns:xlink="http://www.w3.org/1999/xlink"><defs><path id="a" d="M0 .182h53.876V63H0z"/></defs><g fill="none" fill-rule="evenodd"><mask id="b" fill="#fff"><use xlink:href="#a"/></mask><path d="M53.696 52.455L44.43 36.327c.938-.435 1.502-1.427 1.44-2.543l-.689-5.708 3.945-4.093c.875-.869.938-2.357.061-3.412l-3.943-4.218.813-5.769c.125-1.24-.751-2.481-2.003-2.73l-5.698-1.116-2.754-5.025C35.039.535 33.66.04 32.409.535h-.063l-5.259 2.42L21.953.472a2.465 2.465 0 0 0-1.878-.186 2.46 2.46 0 0 0-1.44 1.179L15.817 6.49l-5.697.992c-1.315.249-2.192 1.427-2.066 2.792l.689 5.707-3.945 4.094c-.877.869-.94 2.357-.063 3.411l3.945 4.218-.814 5.769c-.126 1.117.564 2.172 1.628 2.606L.165 52.455c-.25.372-.188.868 0 1.24.25.373.626.621 1.065.621h10.017l4.57 7.877c.25.373.626.621 1.065.621.438 0 .877-.248 1.064-.62l8.953-15.136 8.953 15.321c.25.373.626.62 1.064.62.44 0 .877-.247 1.065-.62l4.57-8.063H52.57c.438 0 .876-.248 1.064-.62a1.02 1.02 0 0 0 .063-1.241zm-36.752 6.637l-3.881-6.637c-.25-.373-.627-.62-1.065-.62h-8.64l8.64-15.136 3.568.62 2.756 5.025c.563 1.178 1.94 1.675 3.193 1.178h.063l2.566-1.178 1.253 2.17-8.453 14.578zm3.632-17.803h-.063l-2.754-5.148c-.376-.62-1.002-1.117-1.754-1.179l-5.76-1.054.814-5.707c.125-.745-.125-1.551-.626-2.047l-3.882-4.219 3.945-4.093c.563-.559.814-1.303.688-2.048l-.688-5.644s0-.062.062-.124l5.698-.993c.688-.124 1.377-.558 1.752-1.24l2.818-5.025L25.96 5.25a2.416 2.416 0 0 0 2.254 0l5.197-2.358h.062l2.755 5.149c.376.62 1.002 1.116 1.69 1.179l5.698 1.116-.814 5.707c-.125.744.124 1.55.626 2.047l3.944 4.218-4.007 4.094c-.563.558-.814 1.302-.688 2.047l.688 5.707-5.635.93c-.688.124-1.377.559-1.753 1.241l-2.817 5.024-5.134-2.481a2.418 2.418 0 0 0-2.254 0l-5.196 2.419zm21.287 10.546c-.439 0-.877.247-1.065.62l-3.882 6.823-8.828-15.135a.989.989 0 0 0-.25-.435l-1.377-2.419.438-.185 5.134 2.48c.376.186.75.248 1.127.248.877 0 1.753-.434 2.191-1.24l2.818-5.025 3.756-.682 8.578 14.95h-8.64z" fill="#CD171A" mask="url(#b)"/><path d="M39 21.5C39 14.625 33.375 9 26.5 9S14 14.625 14 21.5 19.625 34 26.5 34 39 28.375 39 21.5zm-12.5 10c-5.5 0-10-4.5-10-10s4.5-10 10-10 10 4.5 10 10-4.5 10-10 10z" fill="#CD171A"/></g></svg>
